X:1
T:Title
%%score { 1 | ( 2 3 ) }
L:1/8
Q:1/4=94
M:4/4
K:Db
V:1 treble nm="Grand Piano"
V:2 bass 
V:3 bass 
V:1
 F2 FF F2 [FA]2 | [FA][EG][EG]F E4 | [EG]2 [EG][EG] [EG]2 [GB]2 | [GB][FA][A,FA][A,EG] [A,DF]4 | %4
w: R.~Frank~Lehman * * * *||||
 [DFA]2 [CGA][CGA] [DA]2 [Fd]2 | [FA][FA]=AA B4 | B2 cd dAF[FA] | [FA]2 [A,EG]2 [A,DF]4 | %8
w: ||||
 [A,FA]2 [A,FA][Fd] [Gd]2 [Gc]2 | .[Gc]2 [A,EG][GB] [GB]2 [FA]2 | %10
w: ||
 [Fd]2 [DF][DA] [DA][K:bass][G,DG][G,D][K:treble][=G,DE] | [A,DF]2[K:bass] [G,CE]2 [F,D]4 |] %12
w: ||
V:2
 [D,A,D]2 [D,A,D][D,A,D] [D,A,D]2 [D,A,]2 | [C,A,][C,A,][D,A,][F,A,D] [A,C]4 | %2
 [A,,A,]2 [A,,A,][A,,A,] [A,,A,]2 [A,,A,]2 | [A,,A,][A,,A,]B,,C, D,4 | D,2 E,E, F,2 [D,A,]2 | %5
 [D,D][D,D][F,CE][F,CE] [G,B,D]4 | %6
 [G,B,D]2[K:treble] [=G,B,E][G,B,_F] [A,D=F][A,F][A,D][K:bass][A,,A,] | [A,,A,]2 B,,C, D,4 | %8
 D,2 D,[D,A,] [E,A,]2 [A,,A,]2 | z[K:treble] e[K:bass]C,[C,A,] [D,A,]2 [D,A,]2 | %10
 [D,A,]2 [D,A,][_C,F,] [B,,F,]B,,B,,=A,, | A,,2 A,,2 D,4 |] %12
V:3
 x8 | x8 | x8 | x8 | x8 | x8 | x2[K:treble] x5[K:bass] x | x8 | x8 | %9
 [A,,A,]2[K:treble][K:bass] z2 z4 | x8 | x8 |] %12

